icons/svg/shields/h_white_green_square_big_shield.svg

<?xml version="1.0" encoding="UTF-8" standalone="no"?>
<!-- Generator: Adobe Illustrator 16.0.4, SVG Export Plug-In . SVG Version: 6.00 Build 0)  -->

<svg
   xmlns:dc="http://purl.org/dc/elements/1.1/"
   xmlns:cc="http://creativecommons.org/ns#"
   xmlns:rdf="http://www.w3.org/1999/02/22-rdf-syntax-ns#"
   xmlns:svg="http://www.w3.org/2000/svg"
   xmlns="http://www.w3.org/2000/svg"
   xmlns:sodipodi="http://sodipodi.sourceforge.net/DTD/sodipodi-0.dtd"
   xmlns:inkscape="http://www.inkscape.org/namespaces/inkscape"
   version="1.1"
   id="Слой_1"
   x="0px"
   y="0px"
   width="22"
   height="22"
   viewBox="0 0 21.999999 22"
   enable-background="new 0 0 17.113 17.143"
   xml:space="preserve"
   inkscape:version="0.91 r"
   sodipodi:docname="h_white_green_square_shield2.svg"><metadata
     id="metadata13"><rdf:RDF><cc:Work
         rdf:about=""><dc:format>image/svg+xml</dc:format><dc:type
           rdf:resource="http://purl.org/dc/dcmitype/StillImage" /><dc:title /></cc:Work></rdf:RDF></metadata><defs
     id="defs11" /><sodipodi:namedview
     pagecolor="#ffffff"
     bordercolor="#666666"
     borderopacity="1"
     objecttolerance="10"
     gridtolerance="10"
     guidetolerance="10"
     inkscape:pageopacity="0"
     inkscape:pageshadow="2"
     inkscape:window-width="1920"
     inkscape:window-height="1006"
     id="namedview9"
     showgrid="true"
     inkscape:zoom="32"
     inkscape:cx="7.7622967"
     inkscape:cy="12.498078"
     inkscape:window-x="1920"
     inkscape:window-y="0"
     inkscape:window-maximized="1"
     inkscape:current-layer="Слой_1"
     fit-margin-top="0"
     fit-margin-left="0"
     fit-margin-right="0"
     fit-margin-bottom="0"
     inkscape:showpageshadow="false"
     inkscape:snap-object-midpoints="true"
     inkscape:snap-center="true"
     inkscape:snap-page="true"><inkscape:grid
       type="xygrid"
       id="grid2991"
       empspacing="5"
       visible="true"
       enabled="true"
       snapvisiblegridlinesonly="true"
       originx="-1.3381215e-05px"
       originy="0.0064353387px" /></sodipodi:namedview><g
     id="g2117"
     transform="matrix(0.08631273,0,0,0.08631273,32.3743,0.2407327)"
     style="fill:#000000"><g
       id="g2119"
       style="fill:#000000"><g
         id="g2121"
         style="fill:#000000"><path
           inkscape:connector-curvature="0"
           id="path2125"
           style="fill:#000000;stroke:none"
           d="" /></g><g
         id="g2127"
         style="fill:#000000"><path
           inkscape:connector-curvature="0"
           id="path2131"
           style="fill:#000000;stroke:none"
           d="" /></g></g></g><g
     transform="matrix(0.06635536,0,0,0.06635536,28.23946,-0.5870373)"
     id="g1327-1"
     style="fill:#ffffff;stroke:none" /><g
     transform="matrix(0.0321593,0,0,0.03218509,0.5028811,2.8143755)"
     id="g1327-2"
     style="opacity:0.85700001;fill:#ffffff;fill-opacity:1;stroke:none"><path
       inkscape:connector-curvature="0"
       d="M 209.46697,-65.053751 C 97.426676,-61.596302 7.2359269,14.756444 7.3032039,126.51058 L 7.4487175,368.22412 C 7.5817173,589.15105 210.10771,573.52713 215.15011,573.52713 l 243.49117,0 c 110.72206,0 187.24695,-62.49207 186.87425,-207.24463 L 644.89817,126.51058 C 644.54335,-11.297038 539.18475,-59.700408 442.17835,-64.984789 c 0,0 -232.87454,-0.222123 -232.71138,-0.06896 z"
       style="fill:#ffffff;fill-opacity:1;stroke:none"
       id="path1329-2"
       sodipodi:nodetypes="csssssssc" /></g><path
     style="color:#000000;clip-rule:nonzero;display:inline;overflow:visible;visibility:visible;opacity:1;isolation:auto;mix-blend-mode:normal;color-interpolation:sRGB;color-interpolation-filters:linearRGB;solid-color:#000000;solid-opacity:1;fill:#6ccc73;fill-opacity:1;fill-rule:nonzero;stroke:none;stroke-width:1;stroke-linecap:butt;stroke-linejoin:miter;stroke-miterlimit:4;stroke-dasharray:none;stroke-dashoffset:0;stroke-opacity:1;marker:none;color-rendering:auto;image-rendering:auto;shape-rendering:auto;text-rendering:auto;enable-background:accumulate"
     d="M 6.9542463,-0.03301424 C 3.0907641,0.08630444 0.00548494,2.7132167 0.00780429,6.5699222 l 0,8.3586298 c 0.00464114,7.624327 6.96340171,7.099111 7.13727831,7.099111 l 8.3967984,0 c 3.818025,0 6.463119,-2.179943 6.450267,-7.175445 l 0,-8.2822958 c -0.01223,-4.7558276 -3.63954,-6.42056911 -6.984609,-6.60293644 0,0 -8.0589183,-0.0052885 -8.0532927,0 z m 0.2384185,0.68522027 c -0.00529,-0.004959 7.5761652,0 7.5761652,0 3.143396,0.17137239 6.526341,1.72258727 6.537808,6.19168807 l 0.03846,7.7684529 c 0.01206,4.694325 -2.488654,6.765772 -6.076316,6.730096 l -7.8565256,-0.07813 c -0.1621521,-0.0016 -6.75308886,0.589605 -6.75739611,-6.575056 l 0,-7.8453679 C 0.65267656,3.2197077 3.5621099,0.7643313 7.1926648,0.65220603 Z"
     id="path1329-6"
     inkscape:connector-curvature="0"
     sodipodi:nodetypes="cccssccccccccssccc" /></svg>

<svg width="22" height="22" viewBox="0 0 22 22" fill="none" xmlns="http://www.w3.org/2000/svg">
<g clip-path="url(#clip0)">
<g opacity="0.857">
<path opacity="0.857" d="M7.23919 0.720606C3.63606 0.831884 0.735585 3.2893 0.737748 6.88612L0.742428 14.6657C0.746705 21.7762 7.2598 21.2734 7.42196 21.2734H15.2525C18.8132 21.2734 21.2742 19.2621 21.2622 14.6032L21.2424 6.88612C21.2309 2.45077 17.8427 0.892904 14.723 0.722825C14.723 0.722825 7.23395 0.715676 7.23919 0.720606V0.720606Z" fill="white"/>
</g>
<path d="M6.95424 -0.0329889C3.09076 0.0863298 0.0054792 2.71324 0.00779855 6.56995V14.9286C0.0124397 22.5529 6.9712 22.0277 7.14508 22.0277H15.5419C19.3599 22.0277 22.005 19.8477 21.9921 14.8522V6.56995C21.9799 1.81412 18.3526 0.149378 15.0075 -0.0329889C15.0075 -0.0329889 6.94862 -0.0382774 6.95424 -0.0329889V-0.0329889ZM7.19266 0.652231C7.18737 0.647272 14.7688 0.652231 14.7688 0.652231C17.9122 0.823604 21.2952 2.37482 21.3066 6.84392L21.3451 14.6124C21.3572 19.3067 18.8564 21.3781 15.2688 21.3425L7.41225 21.2643C7.2501 21.2627 0.659162 21.8539 0.654855 14.6893V6.84391C0.652671 3.21973 3.5621 0.764357 7.19266 0.652231Z" fill="#6CCC73"/>
</g>
<defs>
<clipPath id="clip0">
<path d="M0 0H22V22H0V0Z" fill="white"/>
</clipPath>
</defs>
</svg>
